!!!OTL: 679a. Sichlein rauschen.
!!!ARE: Europa, Mitteleuropa, Deutschland, Franken
!!!SCT: E0679
!!!TXL: @@DE
!!!YEM: Copyright 1995, estate of Helmut Schaffrath.
**kern	**text
*ICvox	*
*M4/4	*
*met(c)	*
*k[b-]	*
*F:	*
!LO:TX:a:t=Mäßig.	!
!LO:TX:a:t=Aus Franken. Ditfurth II, 74.	!
{4c	Hör
=1	=1
4.f	ich
8g	ein
4a	Sich-
4b-	-lein
=2	=2
2cc	ri-
2dd	-ra-
=3	=3
(4.cc	-rau-
8b-)	.
4a}	-ſchen,
{4cc	ja
=4	=4
4dd	rau-
4cc	-ſchen
4b-/	durch
4a	das
=5	=5
2g	Korn;
4r}	.
{8aL	hör
8b-J	.
=6	=6
4.cc	ich
8b-	ein
4a	Feins-
4g	-lieb
=7	=7
(4.f	kla-
8a)	.
4g}	-gen,
{4g	es
=8	=8
8f	hät-
8a	-te
8cc	ſei-
8b-	-nen
4a	Schatʒ
4g	ver-
=9	=9
2f}	-lorn,
{2g	es
=10	=10
8f	hät-
8a	-te
8cc	ſei-
8b-	-nen
4a	Schatʒ
4g	ver-
=11	=11
2f	-lorn.
4r}	.
==	==
!!!AGN: Liebes - Lied, Leid, Klage
!!!ONB: ESAC (Essen Associative Code) Database: ERK2
!!!AMT: simple quadruple
!!!AIN: vox
!!!EED: Helmut Schaffrath
!!!EEV: 1.0
!!!GTL: Liebeslieder [Neuere (aus dem 18. bis 19. Jahrh.) - Liebesleid] 678-740
!!!URL-scan: https://rosdok.uni-rostock.de/mcrviewer/recordIdentifier/rosdok_ppn745177662/iview2/phys_0478.iview2?x=193.8995864193107&y=301.71793371182866&scale=0.7029437510502773&rotation=0&layout=singlePageLayout
!!!ENC: Anna Maria Matuszewska
!!!EEV: 2024/12/12
*-	*-
